brandFactory_export/2.Regular/Teatro _2Regular.svg

<?xml version="1.0" encoding="UTF-8"?>
<svg width="24px" height="24px" viewBox="0 0 24 24" version="1.1" xmlns="http://www.w3.org/2000/svg" xmlns:xlink="http://www.w3.org/1999/xlink">
    <title>2.Regular/Teatro _2Regular</title>
    <g id="Symbols" stroke="none" stroke-width="1" fill="none" fill-rule="evenodd">
        <g id="2.Regular/Teatro-_2Regular" fill="#5CB615" fill-rule="nonzero">
            <path d="M10.6621849,13.6689076 C10.7226891,13.5613445 10.7663866,13.4537815 10.8033613,13.3495798 C9.87563025,13.9546218 8.24201681,14.7579832 5.85210084,14.6705882 C6.36638655,15.0571429 7.25042017,15.3630252 8.6789916,14.9663866 C9.67058824,14.6907563 10.3361345,14.2537815 10.6621849,13.6689076 L10.6621849,13.6689076 Z M11.7983193,12.1697479 C11.8117647,12.210084 12.0773109,13.1579832 11.5260504,14.1462185 C11.0655462,14.9697479 10.1983193,15.5647059 8.94453782,15.9142857 C8.37983193,16.0722689 7.87563025,16.1394958 7.42857143,16.1394958 C5.07226891,16.1394958 4.3092437,14.2941176 4.30252101,14.2739496 C4.23865546,14.112605 4.26554622,13.9277311 4.37310924,13.789916 C4.48067227,13.6521008 4.65210084,13.5747899 4.82689076,13.605042 C8.87394958,14.1361345 10.9478992,11.994958 10.9680672,11.9714286 C11.0890756,11.8436975 11.2705882,11.7932773 11.4420168,11.8302521 C11.6134454,11.8705882 11.7512605,12.0016807 11.7983193,12.1697479 L11.7983193,12.1697479 Z M4.05378151,11.1378151 C4.20840336,11.1378151 4.37647059,11.1277311 4.54117647,11.107563 C5.0789916,11.0470588 5.58991597,10.8621849 5.58991597,10.8621849 C5.58991597,10.8621849 5.94957983,10.6739496 5.6302521,10.4084034 C5.6302521,10.4084034 5.29411765,10.0218487 4.73277311,10.0218487 C4.40672269,10.0218487 4.01008403,10.1495798 3.55294118,10.5563025 C3.06890756,10.9932773 3.4789916,11.1378151 4.05378151,11.1378151 Z M5.92941176,11.7865546 C5.86554622,11.810084 5.2907563,12.0151261 4.65210084,12.0857143 C4.44369748,12.1092437 4.24201681,12.1226891 4.05714286,12.1226891 C3.18991597,12.1226891 2.63865546,11.8403361 2.4302521,11.2857143 C2.3394958,11.0537815 2.20504202,10.4420168 2.89747899,9.82352941 C3.48235294,9.30252101 4.10084034,9.03697479 4.73613445,9.03697479 C5.43865546,9.03697479 6.01680672,9.38319328 6.32605042,9.70252101 C6.63529412,9.98823529 6.78991597,10.3680672 6.74621849,10.7546218 C6.69243697,11.2386555 6.35294118,11.5781513 6.05042017,11.7361345 C6.00672269,11.7563025 5.9697479,11.7731092 5.92941176,11.7865546 L5.92941176,11.7865546 Z M8.26890756,9.39663866 C8.03697479,9.80672269 8.18823529,9.95462185 8.49747899,9.95462185 C8.74957983,9.95462185 9.10252101,9.85714286 9.43529412,9.72605042 C9.94621849,9.5210084 10.3865546,9.19159664 10.3865546,9.19159664 C10.3865546,9.19159664 10.6789916,8.89915966 10.2722689,8.70084034 C10.2722689,8.70084034 9.96638655,8.48907563 9.55294118,8.48907563 C9.16302521,8.48571429 8.68235294,8.67394958 8.26890756,9.39663866 L8.26890756,9.39663866 Z M8.49747899,10.9361345 C7.76470588,10.9361345 7.43865546,10.5092437 7.33109244,10.3277311 C7.16302521,10.0386555 7.04201681,9.56134454 7.41176471,8.9092437 C8.11092437,7.68235294 9.05210084,7.49747899 9.54957983,7.49747899 C10.1344538,7.49747899 10.5815126,7.73277311 10.7630252,7.84369748 C11.2773109,8.12268908 11.4184874,8.5394958 11.4554622,8.76806723 C11.5529412,9.35966387 11.1932773,9.77310924 11.0823529,9.88739496 C11.0487395,9.9210084 11.0117647,9.9512605 10.9781513,9.97815126 C10.9243697,10.0184874 10.4168067,10.3915966 9.79831933,10.6369748 C9.45546218,10.7747899 8.9512605,10.9361345 8.49747899,10.9361345 L8.49747899,10.9361345 Z M20.5613445,15.8705882 C21.4789916,13.7764706 21.8655462,11.9210084 22.0268908,10.7613445 C20.4369748,11.2857143 18.5378151,11.0773109 17.4420168,10.6571429 C16.3697479,10.2470588 14.8336134,9.04369748 14,7.69579832 C13.794958,8.00840336 13.5596639,8.37815126 13.3176471,8.78151261 C13.4285714,9.14453782 13.5294118,9.52773109 13.6268908,9.9210084 C13.6672269,9.91764706 13.7042017,9.90756303 13.7478992,9.90420168 C13.8487395,9.89747899 13.9462185,9.8907563 14.0403361,9.8907563 C15.8352941,9.8907563 16.4806723,11.107563 16.5882353,11.8168067 C16.6991597,12.3243697 16.507563,12.6739496 16.3764706,12.8420168 C16.1478992,13.1411765 15.7848739,13.3092437 15.3815126,13.3092437 C15.2436975,13.3092437 15.1495798,13.292437 15.1495798,13.292437 C15.1159664,13.2857143 15.0621849,13.2722689 15.0319328,13.2655462 C14.9781513,13.2487395 14.5310924,13.107563 14.0537815,12.8689076 C14.0605042,13.4840336 13.989916,14.0184874 13.8655462,14.502521 C14.4504202,14.4084034 15.1394958,14.4487395 15.9462185,14.7579832 C16.9613445,15.1445378 17.6436975,15.7294118 17.9798319,16.4857143 C18.4235294,17.4907563 18.0638655,18.4218487 18.0470588,18.4588235 C17.9798319,18.6268908 17.8285714,18.7445378 17.6470588,18.7647059 C17.6268908,18.7680672 17.6067227,18.7680672 17.5865546,18.7680672 C17.4285714,18.7680672 17.2773109,18.6907563 17.1865546,18.5596639 C17.1294118,18.4789916 15.7008403,16.6067227 12.4672269,16.7243697 C12.3226891,16.8420168 12.1747899,16.9563025 12.0134454,17.0605042 C12.5210084,17.7058824 13.2840336,18.2336134 14.3697479,18.6504202 C17.3142857,19.7764706 18.907563,19.6420168 20.5613445,15.8705882 L20.5613445,15.8705882 Z M8.75294118,16.8420168 C11.9697479,15.9478992 13.2403361,14.8319328 12.2655462,10.5831933 C11.7142857,8.18319328 10.8571429,6.35462185 10.2621849,5.28235294 C9.48571429,6.41848739 8.22521008,7.3092437 6.5512605,7.8907563 C5.60336134,8.22016807 3.55966387,8.34789916 1.51260504,7.56470588 C1.58319328,8.98991597 1.80504202,11.4268908 2.49747899,13.2689076 C3.76470588,16.6403361 5.63697479,17.7092437 8.75294118,16.8420168 Z M13.3848739,15.6689076 C13.3680672,15.692437 13.3546218,15.7193277 13.3411765,15.7428571 C15.1865546,15.8705882 16.4436975,16.5831933 17.1798319,17.1781513 C17.0621849,16.6806723 16.6756303,16.0890756 15.5966387,15.6789916 C14.5781513,15.2857143 13.8621849,15.410084 13.3848739,15.6689076 L13.3848739,15.6689076 Z M13.9596639,11.6689076 C14.0705882,11.7462185 14.1848739,11.8201681 14.3058824,11.887395 C14.7865546,12.1596639 15.3142857,12.3176471 15.3142857,12.3176471 C15.3142857,12.3176471 15.3411765,12.3210084 15.3815126,12.3210084 C15.492437,12.3210084 15.6941176,12.2840336 15.6168067,11.9915966 C15.6168067,11.9915966 15.5058824,10.8722689 14.0403361,10.8722689 C13.9731092,10.8722689 13.9058824,10.8756303 13.8352941,10.8789916 C13.8857143,11.1546218 13.9260504,11.4201681 13.9596639,11.6689076 Z M23.2134454,8.84201681 C23.4655462,8.96638655 23.6235294,9.22521008 23.6235294,9.50756303 C23.6235294,9.63529412 23.5831933,12.6605042 21.9193277,16.4621849 C20.5310924,19.6285714 18.9310924,20.7445378 16.9983193,20.7445378 C16.0336134,20.7445378 14.9882353,20.4689076 13.8420168,20.0319328 C12.3831933,19.4739496 11.3647059,18.7142857 10.692437,17.7428571 C10.2184874,17.9378151 9.70420168,18.1092437 9.15294118,18.2638655 C8.33613445,18.4890756 7.57310924,18.6033613 6.86386555,18.6033613 C4.21848739,18.6033613 2.32605042,17.010084 1.11260504,13.7865546 C-0.0201680672,10.7680672 -1.8656951e-15,6.55294118 0.00336134454,6.37478992 C0.00672268908,6.11260504 0.14789916,5.87058824 0.376470588,5.7394958 C0.605042017,5.60840336 0.884033613,5.60840336 1.11260504,5.7394958 C3.14285714,6.90252101 5.32773109,6.7512605 6.06722689,6.49243697 C7.32773109,6.05546218 8.94789916,5.18487395 9.49579832,3.53109244 C9.58319328,3.26890756 9.81176471,3.07731092 10.0840336,3.03361345 C10.3596639,2.98991597 10.6319328,3.10420168 10.7966387,3.32941176 C10.8504202,3.40336134 11.8016807,4.7210084 12.6957983,6.98319328 C13.1865546,6.2302521 13.5529412,5.7394958 13.5764706,5.71260504 C13.7546218,5.47394958 14.0571429,5.3697479 14.3462185,5.44033613 C14.6352941,5.51428571 14.8537815,5.75294118 14.897479,6.04537815 C15.0823529,7.25210084 16.8907563,8.86218487 17.9697479,9.27563025 C19.0554622,9.69243697 21.2705882,9.8 22.4336134,8.91260504 C22.6588235,8.74453782 22.9613445,8.71764706 23.2134454,8.84201681 Z M19.9462185,13.2655462 C19.9462185,13.2655462 19.687395,12.6638655 18.887395,12.6638655 C18.6857143,12.6638655 18.4537815,12.7008403 18.1815126,12.794958 C17.5058824,13.0302521 18.1680672,13.3260504 18.8369748,13.4806723 C19.3042017,13.5848739 19.7781513,13.5915966 19.7781513,13.5915966 C19.7781513,13.5915966 20.1310924,13.5546218 19.9462185,13.2655462 Z M17.8588235,11.8672269 C18.2151261,11.7428571 18.5613445,11.6823529 18.887395,11.6823529 C19.9663866,11.6823529 20.5882353,12.3512605 20.8168067,12.8016807 C21.0184874,13.1579832 21.0420168,13.5546218 20.8773109,13.9042017 C20.6991597,14.2773109 20.3260504,14.5260504 19.8823529,14.5764706 C19.8487395,14.5798319 19.8117647,14.5798319 19.7781513,14.5798319 L19.7680672,14.5798319 C19.707563,14.5798319 19.1697479,14.5697479 18.6151261,14.4453782 C18.1647059,14.3411765 16.9680672,14.0689076 16.9142857,13.0806723 C16.9042017,12.8722689 16.9378151,12.1831933 17.8588235,11.8672269 Z" id="Teatro-_2Regular"></path>
        </g>
    </g>
</svg>

<svg width="24" height="24" viewBox="0 0 24 24" xmlns="http://www.w3.org/2000/svg"><path d="M10.662 13.669c.06-.108.104-.215.141-.32-.927.606-2.561 1.409-4.95 1.322.513.386 1.397.692 2.826.295.992-.275 1.657-.712 1.983-1.297zm1.136-1.5c.014.041.28.989-.272 1.977-.46.824-1.328 1.419-2.581 1.768a5.634 5.634 0 01-1.516.225c-2.357 0-3.12-1.845-3.126-1.865a.493.493 0 01.07-.484.476.476 0 01.454-.185c4.047.531 6.12-1.61 6.141-1.634a.506.506 0 01.474-.14c.171.04.31.17.356.339zm-7.744-1.031c.154 0 .322-.01.487-.03a5.243 5.243 0 001.049-.246s.36-.188.04-.454c0 0-.336-.386-.897-.386-.326 0-.723.128-1.18.534-.484.437-.074.582.5.582zm1.875.649a6.033 6.033 0 01-1.277.299c-.208.023-.41.037-.595.037-.867 0-1.418-.283-1.627-.837-.09-.232-.225-.844.467-1.462.585-.521 1.204-.787 1.84-.787.702 0 1.28.346 1.59.666.308.285.463.665.42 1.052-.055.484-.394.823-.697.981-.043.02-.08.037-.12.05zm2.34-2.39c-.232.41-.08.558.228.558.253 0 .606-.098.938-.229.511-.205.952-.534.952-.534s.292-.293-.115-.491c0 0-.306-.212-.72-.212-.389-.003-.87.185-1.283.908zm.228 1.54c-.732 0-1.058-.428-1.166-.61-.168-.288-.289-.766.08-1.418.7-1.227 1.641-1.412 2.139-1.412.584 0 1.032.236 1.213.347.514.279.655.695.692.924.098.592-.262 1.005-.373 1.12-.033.033-.07.063-.104.09-.054.04-.561.414-1.18.659-.343.138-.847.3-1.3.3zm12.064 4.934a19.668 19.668 0 001.466-5.11c-1.59.525-3.49.316-4.585-.104-1.072-.41-2.608-1.613-3.442-2.961-.205.312-.44.682-.682 1.086.11.363.211.746.309 1.139.04-.003.077-.013.12-.017.102-.007.2-.013.293-.013 1.795 0 2.44 1.217 2.548 1.926.111.507-.08.857-.212 1.025-.228.3-.591.467-.994.467-.138 0-.232-.017-.232-.017-.034-.006-.088-.02-.118-.026a7.094 7.094 0 01-.978-.397 6.216 6.216 0 01-.188 1.634c.584-.095 1.273-.054 2.08.255 1.015.387 1.698.971 2.034 1.728a2.722 2.722 0 01.067 1.973.487.487 0 01-.4.306c-.02.003-.04.003-.06.003a.488.488 0 01-.4-.208c-.058-.081-1.486-1.953-4.72-1.836a5.112 5.112 0 01-.454.337c.508.645 1.271 1.173 2.357 1.59 2.944 1.125 4.538.991 6.191-2.78zm-11.808.971c3.217-.894 4.487-2.01 3.513-6.259a20.526 20.526 0 00-2.004-5.3c-.776 1.135-2.037 2.026-3.71 2.608-.949.33-2.992.457-5.04-.326.071 1.425.293 3.862.985 5.704 1.268 3.371 3.14 4.44 6.256 3.573zm4.632-1.173c-.017.023-.03.05-.044.074 1.846.128 3.103.84 3.839 1.435-.118-.497-.504-1.089-1.583-1.499-1.019-.393-1.735-.269-2.212-.01zm.575-4c.11.077.225.151.346.218.48.273 1.008.43 1.008.43a.6.6 0 00.068.004c.11 0 .312-.037.235-.33 0 0-.111-1.119-1.577-1.119-.067 0-.134.004-.205.007.05.276.091.541.125.79zm9.253-2.827a.74.74 0 01.41.666c0 .127-.04 3.153-1.704 6.954-1.388 3.167-2.988 4.283-4.92 4.283-.965 0-2.01-.276-3.157-.713-1.459-.558-2.477-1.318-3.15-2.29a13.98 13.98 0 01-1.54.522c-.816.225-1.579.34-2.288.34-2.646 0-4.538-1.594-5.751-4.817C-.02 10.768 0 6.553.003 6.375a.743.743 0 011.11-.636c2.03 1.164 4.215 1.012 4.954.753 1.26-.437 2.88-1.307 3.429-2.96a.745.745 0 01.588-.498.737.737 0 01.713.295c.053.074 1.005 1.392 1.899 3.654.49-.753.857-1.244.88-1.27a.738.738 0 011.321.332c.185 1.207 1.994 2.817 3.073 3.23 1.085.417 3.3.525 4.464-.362a.751.751 0 01.78-.071zm-3.267 4.424s-.259-.602-1.059-.602c-.201 0-.433.037-.705.131-.676.235-.014.531.655.686.467.104.941.11.941.11s.353-.036.168-.325zm-2.087-1.399a3.128 3.128 0 011.028-.185c1.08 0 1.701.67 1.93 1.12.201.356.225.753.06 1.102-.178.373-.55.622-.995.672-.033.004-.07.004-.104.004h-.01c-.06 0-.598-.01-1.153-.135-.45-.104-1.647-.376-1.7-1.364-.01-.209.023-.898.944-1.214z" fill="#5CB615" fill-rule="nonzero"/></svg>
